X: 27965
T: Mouse In The Kitchen
R: jig
M: 6/8
K: Gmajor
|:B3 Bcd|cBG E2G|D3 DEG|A3 AGA|
B3 Bcd|cBG E2g|ged edB|1 ABd Gdc:|2 A3GcB||
|:A3 AGE|B3 AGE|A3 AGA|Bdg zdB|
A3 AGA|B3 AGE|ged edB|ABd GcB:|

